icons/plus-circle-16.svg

<svg width="16" height="16" viewBox="0 0 16 16" xmlns="http://www.w3.org/2000/svg">
  <path fill-rule="evenodd" clip-rule="evenodd" d="M1.5 8C1.5 4.41015 4.41015 1.5 8 1.5C11.5899 1.5 14.5 4.41015 14.5 8C14.5 11.5899 11.5899 14.5 8 14.5C4.41015 14.5 1.5 11.5899 1.5 8ZM8 0C3.58172 0 0 3.58172 0 8C0 12.4183 3.58172 16 8 16C12.4183 16 16 12.4183 16 8C16 3.58172 12.4183 0 8 0ZM8.75 4.75C8.75 4.33579 8.41421 4 8 4C7.58579 4 7.25 4.33579 7.25 4.75V7.25H4.75C4.33579 7.25 4 7.58579 4 8C4 8.41421 4.33579 8.75 4.75 8.75H7.25V11.25C7.25 11.6642 7.58579 12 8 12C8.41421 12 8.75 11.6642 8.75 11.25V8.75H11.25C11.6642 8.75 12 8.41421 12 8C12 7.58579 11.6642 7.25 11.25 7.25H8.75V4.75Z"/>
</svg>

<svg xmlns="http://www.w3.org/2000/svg" width="16" height="16" viewBox="0 0 16 16"><path fill-rule="evenodd" d="M1.5 8a6.5 6.5 0 1113 0 6.5 6.5 0 01-13 0zM8 0a8 8 0 100 16A8 8 0 008 0zm.75 4.75a.75.75 0 00-1.5 0v2.5h-2.5a.75.75 0 000 1.5h2.5v2.5a.75.75 0 001.5 0v-2.5h2.5a.75.75 0 000-1.5h-2.5v-2.5z"/></svg>
